Arsenal/img/howWeWorkIcon3.svg

<svg width="40" height="40" viewBox="0 0 40 40" fill="none" xmlns="http://www.w3.org/2000/svg">
<g clip-path="url(#clip0)">
<path d="M34.5454 12.7272H29.0909V5.45453H3.63639C1.62725 5.45453 0 7.08177 0 9.09092V29.091H3.63639C3.63639 32.1001 6.08182 34.5455 9.09094 34.5455C12.1001 34.5455 14.5455 32.1001 14.5455 29.091H25.4546C25.4546 32.1001 27.9 34.5455 30.9091 34.5455C33.9183 34.5455 36.3637 32.1001 36.3637 29.091H40.0001V20L34.5454 12.7272ZM9.09094 31.8182C7.58182 31.8182 6.36367 30.6 6.36367 29.0909C6.36367 27.5818 7.58182 26.3636 9.09094 26.3636C10.6001 26.3636 11.8182 27.5818 11.8182 29.0909C11.8182 30.6 10.6 31.8182 9.09094 31.8182ZM30.9091 31.8182C29.4 31.8182 28.1819 30.6 28.1819 29.0909C28.1819 27.5818 29.4 26.3636 30.9091 26.3636C32.4183 26.3636 33.6364 27.5818 33.6364 29.0909C33.6364 30.6 32.4182 31.8182 30.9091 31.8182ZM29.0909 20V15.4546H33.6363L37.2091 20H29.0909Z" fill="#DE6518"/>
</g>
<defs>
<clipPath id="clip0">
<rect width="40" height="40" fill="white"/>
</clipPath>
</defs>
</svg>

<svg width="40" height="40" fill="none" xmlns="http://www.w3.org/2000/svg"><g clip-path="url(#clip0)"><path d="M34.545 12.727h-5.454V5.455H3.636A3.635 3.635 0 000 9.09v20h3.636a5.459 5.459 0 005.455 5.454 5.459 5.459 0 005.455-5.454h10.909a5.459 5.459 0 005.454 5.454 5.459 5.459 0 005.455-5.454H40V20l-5.455-7.273zM9.091 31.818a2.724 2.724 0 01-2.727-2.727 2.724 2.724 0 012.727-2.727 2.724 2.724 0 012.727 2.727 2.724 2.724 0 01-2.727 2.727zm21.818 0a2.724 2.724 0 01-2.727-2.727 2.724 2.724 0 012.727-2.727 2.724 2.724 0 012.727 2.727 2.724 2.724 0 01-2.727 2.727zM29.091 20v-4.545h4.545L37.21 20h-8.118z" fill="#DE6518"/></g><defs><clipPath id="clip0"><path fill="#fff" d="M0 0h40v40H0z"/></clipPath></defs></svg>
